X: 1
T: Hillside, The
M: 6/8
L: 1/8
R: jig
K: Emin
d|:B2 E EFE|BAB d2 B|AFD DED|AFA d2 d|
B2 E EFE|BAB d2 e|dBd AFD|EFE E2d:|
|:efe edB|efg gfe|ded dAB|def fed|
gbg faf|ege BdB|dBd AFD| EFE E2d:|
